public/images/icons/traced.svg

<svg width="22" height="21" viewBox="0 0 22 21" fill="none" xmlns="http://www.w3.org/2000/svg">
<path fill-rule="evenodd" clip-rule="evenodd" d="M16.8943 0.0366216C16.4759 0.109214 16.0761 0.31281 15.7393 0.624964C15.4171 0.923465 15.2269 1.24315 15.114 1.67595C15.0291 2.00123 15.0462 2.52073 15.1522 2.83325C15.4605 3.74267 16.3298 4.35531 17.3161 4.35816C17.9709 4.36006 18.5192 4.12943 18.9848 3.65627C19.3535 3.28151 19.5565 2.83172 19.5908 2.31336C19.6847 0.893256 18.3676 -0.218863 16.8943 0.0366216ZM7.74163 3.94753C7.64809 4.0028 4.44355 6.90867 4.15402 7.20081C3.73829 7.62025 3.64001 8.18811 3.89684 8.68688C4.10378 9.08879 4.56681 9.36017 5.04557 9.36017C5.2504 9.36017 5.59361 9.25523 5.77029 9.13859C5.84595 9.08865 6.47735 8.46548 7.1734 7.75379L8.43895 6.45978L10.4462 6.45759L10.8958 6.45543L10.68 6.68649C10.5613 6.81358 9.26549 8.20387 7.80045 9.77608L5.13675 12.6346L3.27479 12.6351C1.23077 12.6356 1.20364 12.6373 0.870304 12.7934C0.239978 13.0883 -0.0918432 13.6949 0.0221938 14.3439C0.117275 14.8849 0.594882 15.3722 1.15401 15.4987C1.30516 15.5329 1.73035 15.5386 4.13649 15.5388C6.76152 15.539 6.94742 15.536 7.01559 15.4928C7.05568 15.4675 7.69618 14.823 8.43895 14.0606C9.18169 13.2982 9.80043 12.6709 9.81391 12.6666C9.84726 12.656 12.0855 14.9018 12.095 14.9554C12.0991 14.9788 11.9455 15.9486 11.7537 17.1105C11.5618 18.2724 11.3994 19.3374 11.3929 19.4772C11.3717 19.9283 11.5127 20.2884 11.8274 20.5869C12.1386 20.882 12.5388 21.0241 12.9816 20.9967C13.3717 20.9725 13.6673 20.846 13.9447 20.5843C14.1187 20.4202 14.2238 20.262 14.3036 20.044C14.3921 19.8023 15.5477 13.8036 15.5319 13.6674C15.5189 13.5541 15.4824 13.5167 13.9062 12.0037L12.2938 10.4559L13.5452 9.25494L14.7966 8.05401L15.7393 8.95501C16.735 9.90674 16.7899 9.94936 17.1274 10.0338C17.4269 10.1086 17.75 10.0743 18.0438 9.93626C18.205 9.86055 18.3975 9.68444 19.999 8.14725C21.6029 6.60777 21.7839 6.42556 21.8626 6.27058C22.1145 5.77493 22.0153 5.22041 21.604 4.82455C21.1469 4.38453 20.4883 4.31015 19.9421 4.63688C19.874 4.67762 19.3442 5.17431 18.7647 5.74065C17.6657 6.81482 17.6364 6.83846 17.475 6.78055C17.4421 6.76877 16.7586 6.17773 15.9561 5.46716C15.1536 4.75658 14.4414 4.14193 14.3733 4.10127C14.3052 4.06063 14.1716 4.00032 14.0764 3.96725L13.9032 3.90718L11.6473 3.90018C9.4115 3.89324 7.83286 3.89366 7.74163 3.94753Z" fill="white"/>
</svg>

<svg xmlns="http://www.w3.org/2000/svg" width="22" height="21" fill="none"><path fill="#fff" fill-rule="evenodd" d="M16.894.037a2.282 2.282 0 0 0-1.155.588 2.052 2.052 0 0 0-.625 1.05c-.085.326-.068.846.038 1.158.309.91 1.178 1.522 2.164 1.525a2.233 2.233 0 0 0 1.669-.702c.369-.374.572-.824.606-1.343.094-1.42-1.223-2.532-2.697-2.276Zm-9.152 3.91c-.094.056-3.298 2.962-3.588 3.254-.416.42-.514.987-.257 1.486.207.402.67.673 1.149.673.204 0 .548-.105.724-.221.076-.05.707-.674 1.403-1.385L8.44 6.46l2.007-.002.45-.003-.216.231-2.88 3.09-2.663 2.859H3.275c-2.044 0-2.071.002-2.405.158-.63.295-.962.902-.848 1.55.095.542.573 1.03 1.132 1.156.151.034.576.04 2.982.04 2.626 0 2.811-.003 2.88-.046.04-.026.68-.67 1.423-1.432a81.342 81.342 0 0 1 1.375-1.394c.033-.011 2.271 2.235 2.281 2.288.004.024-.15.994-.341 2.155-.192 1.162-.355 2.227-.361 2.367-.021.451.12.811.434 1.11.312.295.712.437 1.155.41.39-.024.685-.151.963-.413.174-.164.279-.322.359-.54.088-.242 1.244-6.24 1.228-6.377-.013-.113-.05-.15-1.626-1.663l-1.612-1.548 1.251-1.201 1.252-1.201.942.901c.996.952 1.05.994 1.388 1.079.3.075.623.04.917-.098.161-.075.354-.252 1.955-1.789 1.604-1.54 1.785-1.721 1.864-1.876.252-.496.152-1.05-.259-1.446a1.353 1.353 0 0 0-1.662-.188c-.068.04-.598.537-1.177 1.104-1.1 1.074-1.129 1.097-1.29 1.04-.033-.012-.716-.603-1.519-1.314-.802-.71-1.515-1.325-1.583-1.366a1.958 1.958 0 0 0-.297-.134l-.173-.06-2.256-.007c-2.236-.007-3.814-.006-3.905.048Z" clip-rule="evenodd"/></svg>
